packages/axiom-materials/src/icon_svgs/tools.svg

<svg height="16" viewBox="0 0 16 16" width="16" xmlns="http://www.w3.org/2000/svg"><path d="m6 9v.5c0 .27614237.22385763.5.5.5h3c.27614237 0 .5-.22385763.5-.5v-.5h4.5v2.5c0 .8284271-.6715729 1.5-1.5 1.5h-10c-.82842712 0-1.5-.6715729-1.5-1.5v-2.5zm8.5-1h-13v-2.5c0-.8.7-1.5 1.5-1.5h2v-.5c0-.8.7-1.5 1.5-1.5h3c.8 0 1.5.7 1.5 1.5v.5h2c.8 0 1.5.7 1.5 1.5zm-8.5-5v1h4v-1z"/></svg>

<svg xmlns="http://www.w3.org/2000/svg" width="16" height="16" viewBox="0 0 16 16">
  <path d="M6,9 L6,9.5 C6,9.77614237 6.22385763,10 6.5,10 L9.5,10 C9.77614237,10 10,9.77614237 10,9.5 L10,9 L14.5,9 L14.5,11.5 C14.5,12.3284271 13.8284271,13 13,13 L3,13 C2.17157288,13 1.5,12.3284271 1.5,11.5 L1.5,9 L6,9 Z M14.5,8 L1.5,8 L1.5,5.5 C1.5,4.7 2.2,4 3,4 L5,4 L5,3.5 C5,2.7 5.7,2 6.5,2 L9.5,2 C10.3,2 11,2.7 11,3.5 L11,4 L13,4 C13.8,4 14.5,4.7 14.5,5.5 L14.5,8 Z M6,3 L6,4 L10,4 L10,3 L6,3 Z"/>
</svg>
